X: 66
M: C
L: 1/8
K: Em
E | E <E E> F F <E E> B |
d B A> F F <D D> d | B> A B>
d e> f e> d | B> d (B/A/) F E <E E2 |][|
e2 e> f e <e e2 | (d>e) d> B (A/G/) (F/E/) D> d |

